X: 1
T: Jefferson Road
C: by Larry Unger 2001
R: reel
Z: 2012 John Chambers <jc:trillian.mit.edu>
B: the Portland Collection v.2 p.99
M: C|
L: 1/8
K: G
z |:\
"G"B,DDE D2DE | GEDG EDEG | "C"AGAB AGED |1,3 "D7"EDEG EDB,A, \
                                        :|2,4 "D7"EDEF "G"G2z :|
|: A |\
"G"B2d2 BAGA | BABd BAGB |1,3 "C"edBe dBed | "D"BedB edB \
                        :|2,4 "C"AGAB AGED | "D7"EDEF "G"G2z :|
